X: 17549
T: Hinba
R: reel
M: 4/4
K: Eminor
|:[M:7/4] EEBG AAGA - ABGF ED|DEBE ddBA - ABGB AB:|
EEBG AAGA - ABGF EB|d2 e B2 G A3 B B/A/G AB|
|:[M:8/4] d2 B d2 e A3 G G/A/B ABGF|[M:12/8] DEG F2 G E3 DDB|
[M:8/4] d2 B d2 e A3 G G/A/B ABGF|[M:7/4] G2 E G2 A E2 DGDE E2:|
|:[M:7/4] G2 E E2 G A2 GG F/G/A Bd|B2 d A2 B DEDG DE E2|
G2 E E2 G A2 GG F/G/A Bd|e2 B d2 A BdED DBAB:|

